FRONT/src/assets/navbar/location.svg

<svg xmlns="http://www.w3.org/2000/svg" height="24px" viewBox="0 0 24 24" width="24px" fill="#000000"><path d="M0 0h24v24H0V0z" fill="none"/><path d="M12 2C6.48 2 2 6.48 2 12s4.48 10 10 10 10-4.48 10-10S17.52 2 12 2zm0 18c-4.41 0-8-3.59-8-8s3.59-8 8-8 8 3.59 8 8-3.59 8-8 8zm-5.5-2.5l7.51-3.49L17.5 6.5 9.99 9.99 6.5 17.5zm5.5-6.6c.61 0 1.1.49 1.1 1.1s-.49 1.1-1.1 1.1-1.1-.49-1.1-1.1.49-1.1 1.1-1.1z"/></svg>

<svg width="24" height="24" viewBox="0 0 24 24" fill="none" xmlns="http://www.w3.org/2000/svg">
<path d="M12 2C6.48 2 2 6.48 2 12C2 17.52 6.48 22 12 22C17.52 22 22 17.52 22 12C22 6.48 17.52 2 12 2ZM12 20C7.59 20 4 16.41 4 12C4 7.59 7.59 4 12 4C16.41 4 20 7.59 20 12C20 16.41 16.41 20 12 20ZM6.5 17.5L14.01 14.01L17.5 6.5L9.99 9.99L6.5 17.5ZM12 10.9C12.61 10.9 13.1 11.39 13.1 12C13.1 12.61 12.61 13.1 12 13.1C11.39 13.1 10.9 12.61 10.9 12C10.9 11.39 11.39 10.9 12 10.9Z" fill="white"/>
</svg>
